X: 8697
T: Crow In The Sun, The
R: reel
M: 4/4
K: Fmajor
|:FG|"F"A2 cA "Bb"BA G>F|"Dm"D2 "C"C2 "Am"A,3 F/G/|"F"A3 c "Dm"dcBA|"Gm"ABG2 (G2 G>)A|
"Bb"BFBc "Am"dc d<e|"F"fcfa "C"g2 fe|"F"dcfc "Bb"BA G>F|"Dm"D2 "C"E2 "F"F2:|
|:zf|"F"d<c fc "C6"c2 Ac|"F"c2 fa "Gm"g3 g/a/|"Bb"bB d<b "Am"aA c<a|"Gm"gfed "Am"c2 c/d/f|
"Dm"{_e}dcBA "C6"c2 F/G/A|"Bb"BA G>F "Dm"D2 C>B,|"F"A,CFA "Bb"G<B "C"E<G|"F"F6:|

